X:1
T:Serra efter A F Stare
T:"Pollonesse No 8"
R:Serra
O:Åbo och Eskilstuna
Z:Åke Persson, 2015-05-26
N:Jämför +
M:3/4
L:1/8
K:C
|: dd A2 f2 | ed c2 d2 | efgf ed | ec A4 :|
|: fd f2 a2 | gf e2 g2 | fe fd ec | d2 d2 z2 :|

